X:1
T:Stormy Weather, Boys
M:2/4
L:1/16
K:D
 AA| FF A2A2 A2| G2B2 B3 B| E2 AA AA FF| G2E-E E4| D3 EF E D2| E3 FG D E2|\
 AA A2A2 G2| F2D2 D2||
